X:168
T:Miss Cartwrite Fancy. VWMLa.168
%%VWML:Anon2-3049-p104-0
F:http://www.vwml.org/record/Anon2/3049/p104
S:Anon. MS, late 18thC, Vaughan Williams Mem. Library
N:It seems a cotillion is a slow jig.
O:England;Yorkshire
Z:vmp/efdss.Simon Wilson. Reviewed PJH 2008.
M:6/8
L:1/8
Q:3/8=100
K:Bb
DFB !turn!B2c|dBB !turn!B2g|fed cBc|dBB !turn!B2f|\
dfd cfc|Bba gf=e|fcB ABG|AFF F3:|
|:AcA (gf).A|BBB BBB|GAB GFE|E3 D3|\
GBG FBF|Eed cBA|BFE DEC|DB,B, B,3:|
T:Le Jupon Rouge. VWMLa.169
R:Cotillion
S:Anon. MS, late 18thC, Vaughan Williams Mem. Library
O:England;Yorkshire
Z:vmp/efdss.Simon Wilson. Reviewed PJH 2008.
M:6/8
L:1/8
Q:3/8=100
K:D
A|A2d FED|"^drone on A"[A,2-E2][A,-E] [A,2-E2][A,F]|\
G2F EDE|D3A,DF|A2d FED|\
"^drone on A"[A,2-E2][A,-E] [A,2-E2][A,F]|G2F EDE|D3- D2:|
A|Adf fed|ecA A2A|Aeg gfe|afd d2A|\
B2B gec|daf d2A|B2B g2f|!D.C.!(f3 e2)|]
